mobile/24/svg/plus-24.svg

<svg width="24" height="24" fill="none" xmlns="http://www.w3.org/2000/svg"><path d="M11.125 12.875v7.875h1.75v-7.875h7.875v-1.75h-7.875V3.25h-1.75v7.875H3.25v1.75h7.875z" fill="#000"/></svg>

<svg width="24" height="24" viewBox="0 0 24 24" fill="none" xmlns="http://www.w3.org/2000/svg">
<path d="M11.125 12.875V20.75H12.875V12.875H20.75V11.125H12.875V3.25H11.125V11.125H3.25V12.875H11.125Z" fill="black"/>
</svg>
